Newaita/actions/32/format-list-unordered.svg

<svg height="32" viewBox="0 0 32 32" width="32" xmlns="http://www.w3.org/2000/svg"><g fill="#424242"><path d="m28.445312 6.867188h-25.136718c-.367188 0-.664063-.296876-.664063-.664063v-1.324219c0-.363281.296875-.660156.664063-.660156h25.136718c.367188 0 .660157.296875.660157.660156v1.324219c0 .367187-.292969.664063-.660157.664063zm0 0"/><path d="m23.152344 28.695312h-19.84375c-.367188 0-.664063-.296874-.664063-.660156v-1.324218c0-.367188.296875-.660157.664063-.660157h19.84375c.367187 0 .664062.292969.664062.660157v1.324218c0 .363282-.296875.660156-.664062.660156zm0 0"/><path d="m23.152344 21.417969h-7.9375c-.363282 0-.660156-.296875-.660156-.660157v-1.324218c0-.363282.296874-.660156.660156-.660156h7.9375c.367187 0 .664062.296874.664062.660156v1.324218c0 .363282-.296875.660157-.664062.660157zm0 0"/><path d="m28.445312 14.140625h-19.84375c-.367187 0-.664062-.292969-.664062-.660156v-1.324219c0-.363281.296875-.660156.664062-.660156h19.84375c.367188 0 .660157.296875.660157.660156v1.324219c0 .367187-.292969.660156-.660157.660156zm0 0"/></g></svg>

<?xml version="1.0" encoding="UTF-8"?>
<svg xmlns="http://www.w3.org/2000/svg" xmlns:xlink="http://www.w3.org/1999/xlink" width="32px" height="32px" viewBox="0 0 32 32" version="1.1">
<g id="surface1">
<path style=" stroke:none;fill-rule:nonzero;fill:rgb(25.882354%,25.882354%,25.882354%);fill-opacity:1;" d="M 28.445312 6.867188 L 3.308594 6.867188 C 2.941406 6.867188 2.644531 6.570312 2.644531 6.203125 L 2.644531 4.878906 C 2.644531 4.515625 2.941406 4.21875 3.308594 4.21875 L 28.445312 4.21875 C 28.8125 4.21875 29.105469 4.515625 29.105469 4.878906 L 29.105469 6.203125 C 29.105469 6.570312 28.8125 6.867188 28.445312 6.867188 Z M 28.445312 6.867188 "/>
<path style=" stroke:none;fill-rule:nonzero;fill:rgb(25.882354%,25.882354%,25.882354%);fill-opacity:1;" d="M 23.152344 28.695312 L 3.308594 28.695312 C 2.941406 28.695312 2.644531 28.398438 2.644531 28.035156 L 2.644531 26.710938 C 2.644531 26.34375 2.941406 26.050781 3.308594 26.050781 L 23.152344 26.050781 C 23.519531 26.050781 23.816406 26.34375 23.816406 26.710938 L 23.816406 28.035156 C 23.816406 28.398438 23.519531 28.695312 23.152344 28.695312 Z M 23.152344 28.695312 "/>
<path style=" stroke:none;fill-rule:nonzero;fill:rgb(25.882354%,25.882354%,25.882354%);fill-opacity:1;" d="M 23.152344 21.417969 L 15.214844 21.417969 C 14.851562 21.417969 14.554688 21.121094 14.554688 20.757812 L 14.554688 19.433594 C 14.554688 19.070312 14.851562 18.773438 15.214844 18.773438 L 23.152344 18.773438 C 23.519531 18.773438 23.816406 19.070312 23.816406 19.433594 L 23.816406 20.757812 C 23.816406 21.121094 23.519531 21.417969 23.152344 21.417969 Z M 23.152344 21.417969 "/>
<path style=" stroke:none;fill-rule:nonzero;fill:rgb(25.882354%,25.882354%,25.882354%);fill-opacity:1;" d="M 28.445312 14.140625 L 8.601562 14.140625 C 8.234375 14.140625 7.9375 13.847656 7.9375 13.480469 L 7.9375 12.15625 C 7.9375 11.792969 8.234375 11.496094 8.601562 11.496094 L 28.445312 11.496094 C 28.8125 11.496094 29.105469 11.792969 29.105469 12.15625 L 29.105469 13.480469 C 29.105469 13.847656 28.8125 14.140625 28.445312 14.140625 Z M 28.445312 14.140625 "/>
</g>
</svg>
